.cache/img/_logos/logo-pucks.svg

<svg xmlns="http://www.w3.org/2000/svg" width="250" height="52" viewBox="0 0 250 52"><path d="M0 51.43V39.89h3.09V11.61H0V0h31.81L40 8.23v15.5L31.81 32H17.19v7.93h3.09v11.5zm19-1.25v-9.11h-3.06V30.71h15.5l7.35-7.42V8.67L31.3 1.18h-30v9.18h3v30.71h-3v9.11zM2.86 48.56v-5.88h3V8.74h-3V2.87h27.55l6.76 6.75v12.71l-6.76 6.84h-16v13.51h3.08v5.88zm22.63-25.34L28.72 20v-8.1l-3.15-3.16H14.4v14.48zm-9.55-1.62V10.36h8.67l2.57 2.57v6l-2.57 2.67zm8.38-1.25l1.61-1.62v-5.51l-1.61-1.61h-7.13v8.74zM44.23 11.61V0H64.5v11.61h-3.08v26.67L63 39.89h7.6l1.62-1.61V11.61h-3.09V0h20.35v11.61h-3.16V43.2l-8.15 8.23H55.54l-8.23-8.23V11.61zm4.26-1.25V42.9l7.27 7.28H78l7.2-7.2V10.36h3V1.25H70.38v9.11h3.16V38.5l-2.65 2.57h-8.08l-2.64-2.65V10.36h3.08V1.25H45.47v9.11zm-1.4-1.62V2.87h14.62v5.87h-3.09v30.78l3.16 3.16h10.07l3.23-3.23V8.74H72V2.87h14.62v5.87h-3.09V41.8l-6.76 6.76H56.94l-6.84-6.83v-33zM94.11 43.2v-35l8.23-8.2H125l8.23 8.23v11.46H119v-6.47l-1.61-1.61h-7.57l-1.62 1.61v25l1.69 1.69h7.5l1.61-1.63V32.1h14.18v11.1L125 51.43h-22.66zm8.74 7h21.82l7.27-7.28v-9.64h-11.68v5.22l-2.57 2.57h-8.08L107 38.5V12.93l2.57-2.57h8.08l2.57 2.57v5.66h11.68V8.52l-7.3-7.34h-22l-7.24 7.34v34.16zM97 41.8V9.62l6.76-6.75h19.91l6.76 6.75v7.28h-8.52V12l-3.23-3.23h-10.1l-3.16 3.16v27.59l3.16 3.16h10.07l3.23-3.23v-4.63h8.67v7l-6.76 6.76h-20.06zM136.28 51.43V39.89h3.08V11.61h-3.08V0h20.27v11.61h-3.08v7.27l7.27-7.27h-1.25V0h24.39v11.61h-4.26l-14 14L180 39.89h3.89v11.54h-24.4V39.89h1.4l-5-5-2.35 2.35v2.64h3.09v11.55zm19.1-1.25v-9.11h-3.16V37l3.67-3.67 7.79 7.79h-2.94v9.11h21.82v-9.16h-3.09L164 25.57l15.21-15.21h3.45V1.25h-21.92v9.11h2.94l-11.46 11.46V10.36h3.08V1.25h-17.77v9.11h3v30.71h-3v9.11zm-16.24-1.62v-5.88h3V8.74h-3V2.87h14.62v5.87h-3.08v17l17-17h-5.44V2.87H181v5.87h-3.09l-17 17 17 17H181v5.88h-18.72v-5.94h5.51L156 30.78l-5.29 5.36v6.54h3.15v5.88zM191.6 43.2v-9.85h14.1v4.85l1.76 1.69h7.35l1.69-1.61v-5.07l-1.62-1.55h-15.06l-8.22-8.22V8.23L199.82 0h22.63l8.23 8.23v10.14H216.5v-5.15l-1.62-1.61h-7.64l-1.54 1.61v5.22l1.62 1.62h15.13l8.23 8.22V43.2l-8.23 8.23h-22.63zm8.59 7h21.89l7.35-7.28V28.5l-7.27-7.2H207l-2.49-2.57v-5.8l2.49-2.57h8.16l2.57 2.57v4.19h11.68v-8.6l-7.27-7.27h-22l-7.28 7.27v14.62l7.28 7.27h15.06l2.57 2.5v5.59l-2.65 2.57h-8l-2.57-2.57v-3.9h-11.71v8.3zm-5.73-8.38v-5.68h8.45v3.38l3.16 3.16h10.14l3.16-3.23V32.1l-3.24-3.3h-14.84l-6.83-6.8V9.62l6.76-6.75h19.84l6.83 6.9v5.8h-8.52v-3.52l-3.24-3.31h-10.06l-3.16 3.16v7.79l3.16 3.16h15l6.83 6.9v12l-6.69 6.76h-20zM235.82 36V0H250v36zm0 15.43V39.82H250v11.61zm12.93-16.68V1.25h-11.68v33.5zm0 15.43v-9.11h-11.68v9.11zm-10.06-17V2.87h8.44v30.26zm0 15.43v-5.93h8.44v5.88z" fill="#fff"/></svg>

<svg xmlns="http://www.w3.org/2000/svg" width="250" height="52" viewBox="0 0 250 52"><path d="M0,51.43V39.89H3.09V11.61H0V0H31.81L40,8.23v15.5L31.81,32H17.19v7.93h3.09V51.43Zm19-1.25V41.07H15.94V30.71h15.5l7.35-7.42V8.67L31.3,1.18h-30v9.18h3V41.07h-3v9.11ZM2.86,48.56V42.68h3V8.74h-3V2.87H30.41l6.76,6.75V22.33l-6.76,6.84h-16V42.68h3.08v5.88ZM25.49,23.22,28.72,20V11.9L25.57,8.74H14.4V23.22ZM15.94,21.6V10.36h8.67l2.57,2.57v6L24.61,21.6Zm8.38-1.25,1.61-1.62V13.22l-1.61-1.61H17.19v8.74Z" fill="#fff"/><path d="M44.23,11.61V0H64.5V11.61H61.42V38.28L63,39.89H70.6l1.62-1.61V11.61H69.13V0H89.48V11.61H86.32V43.2l-8.15,8.23H55.54L47.31,43.2V11.61Zm4.26-1.25V42.9l7.27,7.28H78l7.2-7.2V10.36h3V1.25H70.38v9.11h3.16V38.5l-2.65,2.57H62.81l-2.64-2.65V10.36h3.08V1.25H45.47v9.11Zm-1.4-1.62V2.87H61.71V8.74H58.62V39.52l3.16,3.16H71.85l3.23-3.23V8.74H72V2.87H86.62V8.74H83.53V41.8l-6.76,6.76H56.94L50.1,41.73v-33Z" fill="#fff"/><path d="M94.11,43.2v-35L102.34,0H125l8.23,8.23V19.69H119V13.22l-1.61-1.61h-7.57l-1.62,1.61v25l1.69,1.69h7.5L119,38.28V32.1h14.18V43.2L125,51.43H102.34Zm8.74,7h21.82l7.27-7.28V33.28H120.26V38.5l-2.57,2.57h-8.08L107,38.5V12.93l2.57-2.57h8.08l2.57,2.57v5.66h11.68V8.52L124.6,1.18h-22L95.36,8.52V42.68ZM97,41.8V9.62l6.76-6.75h19.91l6.76,6.75V16.9h-8.52V12l-3.23-3.23H108.58l-3.16,3.16V39.52l3.16,3.16h10.07l3.23-3.23V34.82h8.67v7l-6.76,6.76H103.73Z" fill="#fff"/><path d="M136.28,51.43V39.89h3.08V11.61h-3.08V0h20.27V11.61h-3.08v7.27l7.27-7.27h-1.25V0h24.39V11.61h-4.26l-14,14L180,39.89h3.89V51.43H159.49V39.89h1.4l-5-5-2.35,2.35v2.64h3.09V51.43Zm19.1-1.25V41.07h-3.16V37l3.67-3.67,7.79,7.79h-2.94v9.11h21.82V41.07h-3.09L164,25.57l15.21-15.21h3.45V1.25H160.74v9.11h2.94L152.22,21.82V10.36h3.08V1.25H137.53v9.11h3V41.07h-3v9.11Zm-16.24-1.62V42.68h3V8.74h-3V2.87h14.62V8.74h-3.08v17l17-17h-5.44V2.87H181V8.74h-3.09l-17,17,17,17H181v5.88H162.28V42.68h5.51L156,30.78l-5.29,5.36v6.54h3.15v5.88Z" fill="#fff"/><path d="M191.6,43.2V33.35h14.1V38.2l1.76,1.69h7.35l1.69-1.61V33.21l-1.62-1.55H199.82l-8.22-8.22V8.23L199.82,0h22.63l8.23,8.23V18.37H216.5V13.22l-1.62-1.61h-7.64l-1.54,1.61v5.22l1.62,1.62h15.13l8.23,8.22V43.2l-8.23,8.23H199.82Zm8.59,7h21.89l7.35-7.28V28.5l-7.27-7.2H207l-2.49-2.57v-5.8L207,10.36h8.16l2.57,2.57v4.19h11.68V8.52l-7.27-7.27h-22l-7.28,7.27V23.14l7.28,7.27h15.06l2.57,2.5V38.5l-2.65,2.57h-8l-2.57-2.57V34.6H192.84v8.3Zm-5.73-8.38V36.14h8.45v3.38l3.16,3.16h10.14l3.16-3.23V32.1l-3.24-3.3H201.29L194.46,22V9.62l6.76-6.75h19.84l6.83,6.9v5.8h-8.52V12.05l-3.24-3.31H206.07l-3.16,3.16v7.79l3.16,3.16h15l6.83,6.9v12l-6.69,6.76h-20Z" fill="#fff"/><path d="M235.82,36V0H250V36Zm0,15.43V39.82H250V51.43Zm12.93-16.68V1.25H237.07v33.5Zm0,15.43V41.07H237.07v9.11Zm-10.06-17V2.87h8.44V33.13Zm0,15.43V42.68h8.44v5.88Z" fill="#fff"/></svg>
